X:46
T: DER JAEGER LAENGS DEM WEIHER GING
N: Z0047
O: Europa, Mitteleuropa, Deutschland, Rheinland
R: Sagen - Lied, Romanze
M: 2/4
L: 1/16
K: Bb
F4 | B3BB3B | B2AGF4 |
B4f2f2 | d6
d2 | c2c2f2c2 | B2AGF4 |
B2BBB2BB | B2B2B2
d2 | cBABcBAG | F2F2F2
e2 | d2d2c2c2 | f4
g2e2 | d2d2c2c2 | B4

@@@ Tune index: 9804
